public/common/mobile-logo-black.svg

<svg width="125" height="30" viewBox="0 0 125 30" fill="none" xmlns="http://www.w3.org/2000/svg">
<path d="M46.9244 24.6357H5.0855C2.27696 24.6357 0 22.3543 0 19.5403V5.09542C0 2.2814 2.27696 0 5.0855 0H41.8389C44.6474 0 46.9244 2.2814 46.9244 5.09542V24.6357Z" fill="#34D186"/>
<path d="M5.8543 5.56731H9.24289L12.0168 13.4334L15.002 5.56731H17.0746L20.0061 13.3432L22.7834 5.56731H26.1946L21.1593 19.3928H18.9654L16.0236 11.5146L12.9934 19.3928H10.8255L5.8543 5.56731Z" fill="white"/>
<path d="M41.9792 13.4837H30.8558C31.0169 14.4674 31.4463 15.2481 32.1423 15.8275C32.8402 16.4087 33.7302 16.6985 34.8124 16.6985C36.1058 16.6985 37.2175 16.2457 38.1473 15.3383L41.0649 16.7106C40.3377 17.7446 39.4667 18.508 38.452 19.0042C37.4374 19.5003 36.2322 19.7484 34.8383 19.7484C32.6739 19.7484 30.9112 19.0649 29.5503 17.696C28.1893 16.3272 27.5088 14.6149 27.5088 12.5555C27.5088 10.4459 28.1875 8.69535 29.5433 7.30049C30.9008 5.90736 32.6012 5.20992 34.6479 5.20992C36.8209 5.20992 38.5871 5.90736 39.9498 7.30049C41.3108 8.69361 41.9913 10.5344 41.9913 12.821L41.9792 13.4837ZM38.5161 10.7529C38.2875 9.98265 37.8373 9.35461 37.1638 8.87231C36.4902 8.39001 35.7093 8.14886 34.8193 8.14886C33.8531 8.14886 33.0064 8.4195 32.2791 8.96253C31.822 9.30083 31.3978 9.89937 31.0082 10.7547H38.5161V10.7529Z" fill="white"/>
<path d="M55.8989 10.7616H59.362V24.5871H55.8989V10.7616Z" fill="#232524"/>
<path d="M49.6723 5.42505H53.1354V24.5871H49.6723V5.42505Z" fill="#232524"/>
<path d="M57.6304 5.0694C58.2365 5.0694 58.7577 5.28973 59.1923 5.7304C59.6269 6.17106 59.8433 6.70541 59.8433 7.33171C59.8433 7.94934 59.6286 8.47675 59.1992 8.91395C58.7698 9.35114 58.2555 9.56801 57.6564 9.56801C57.0417 9.56801 56.5153 9.34594 56.0824 8.90007C55.6478 8.45593 55.4314 7.91464 55.4314 7.27967C55.4314 6.66898 55.6461 6.14851 56.0755 5.71652C56.5049 5.28452 57.0227 5.0694 57.6304 5.0694Z" fill="#34D186"/>
<path d="M65.9695 10.7616V12.179C66.7538 11.5163 67.4655 11.0548 68.1027 10.7946C68.7399 10.5361 69.3927 10.406 70.0593 10.406C71.4272 10.406 72.5874 10.8848 73.5414 11.8425C74.3431 12.6561 74.7449 13.8584 74.7449 15.4511V24.5871H71.3199V18.5323C71.3199 16.8824 71.2454 15.7876 71.0983 15.2446C70.9511 14.7016 70.6931 14.2904 70.326 14.0076C69.9589 13.7248 69.5052 13.5826 68.9667 13.5826C68.2672 13.5826 67.6664 13.8168 67.1642 14.287C66.6621 14.7571 66.314 15.406 66.1201 16.2353C66.0197 16.6672 65.9677 17.6024 65.9677 19.0406V24.5871H62.5047V10.7616H65.9695Z" fill="#232524"/>
<path d="M91.7381 10.7616V22.6041C91.7381 24.9427 91.2688 26.662 90.3303 27.7637C89.0698 29.254 87.172 30 84.6353 30C83.283 30 82.1454 29.83 81.2242 29.4917C80.3031 29.1534 79.5256 28.6554 78.8901 27.9979C78.2564 27.3404 77.7871 26.5423 77.4824 25.602H81.3004C81.6381 25.9924 82.0744 26.2856 82.606 26.4851C83.1376 26.6846 83.7678 26.7835 84.4951 26.7835C85.4249 26.7835 86.1729 26.6395 86.7391 26.3515C87.3054 26.0635 87.7053 25.6905 87.9374 25.2325C88.1694 24.7745 88.2854 23.9868 88.2854 22.8695C87.6759 23.4802 87.0387 23.9174 86.3703 24.1846C85.702 24.4518 84.9453 24.5854 84.1003 24.5854C82.2493 24.5854 80.684 23.9157 79.4079 22.5781C78.1317 21.2405 77.4928 19.5455 77.4928 17.4948C77.4928 15.3001 78.1698 13.5392 79.5221 12.2085C80.7481 11.0062 82.2112 10.4042 83.9098 10.4042C84.7046 10.4042 85.4543 10.55 86.1608 10.8432C86.8673 11.1346 87.5755 11.6169 88.2854 12.2849V10.7616H91.7381ZM84.6994 13.6468C83.6085 13.6468 82.7081 14.0128 81.9982 14.7467C81.2883 15.4788 80.9333 16.4001 80.9333 17.5104C80.9333 18.6624 81.297 19.6062 82.0242 20.3435C82.7514 21.0808 83.664 21.4486 84.7635 21.4486C85.837 21.4486 86.7236 21.0878 87.4196 20.3678C88.1174 19.6478 88.4655 18.704 88.4655 17.5347C88.4655 16.3827 88.114 15.4459 87.4127 14.7259C86.7114 14.0059 85.8076 13.6468 84.6994 13.6468Z" fill="#232524"/>
<path d="M95.2271 10.7616H98.7265V17.4202C98.7265 18.7162 98.8148 19.6166 98.9932 20.1197C99.1715 20.6246 99.4572 21.0149 99.852 21.2942C100.247 21.5736 100.732 21.7141 101.308 21.7141C101.885 21.7141 102.373 21.577 102.777 21.3012C103.18 21.0253 103.478 20.6211 103.673 20.0885C103.817 19.6912 103.89 18.8393 103.89 17.5347V10.7616H107.353V16.6187C107.353 19.0337 107.163 20.6853 106.782 21.5736C106.316 22.6579 105.632 23.4906 104.726 24.0701C103.821 24.6495 102.671 24.941 101.277 24.941C99.7637 24.941 98.5395 24.6027 97.6062 23.9244C96.6712 23.246 96.0149 22.3022 95.634 21.0913C95.3639 20.2533 95.2288 18.7283 95.2288 16.5163V10.7616H95.2271Z" fill="#232524"/>
<path d="M124.473 10.7616V24.5871H121.01V23.1263C120.334 23.7699 119.655 24.2332 118.977 24.5177C118.296 24.8005 117.56 24.9427 116.766 24.9427C114.984 24.9427 113.443 24.2505 112.142 22.8661C110.842 21.4816 110.191 19.7588 110.191 17.7012C110.191 15.5673 110.82 13.8168 112.078 12.4532C113.337 11.0895 114.864 10.4077 116.663 10.4077C117.491 10.4077 118.269 10.5638 118.994 10.8779C119.72 11.1919 120.391 11.662 121.008 12.2883V10.7616H124.473ZM117.37 13.6086C116.3 13.6086 115.412 13.9885 114.703 14.7467C113.995 15.5049 113.642 16.4764 113.642 17.6631C113.642 18.8567 114.002 19.8404 114.722 20.6107C115.443 21.381 116.329 21.7679 117.384 21.7679C118.471 21.7679 119.373 21.3897 120.088 20.6315C120.803 19.8734 121.164 18.8792 121.164 17.6509C121.164 16.4486 120.805 15.4736 120.088 14.7276C119.37 13.9799 118.464 13.6086 117.37 13.6086Z" fill="#232524"/>
</svg>

<svg width="125" height="30" fill="none" xmlns="http://www.w3.org/2000/svg"><path d="M46.924 24.636H5.086A5.09 5.09 0 0 1 0 19.54V5.095A5.09 5.09 0 0 1 5.085 0H41.84a5.09 5.09 0 0 1 5.085 5.095v19.54z" fill="#34D186"/><path d="M5.854 5.567h3.389l2.774 7.866 2.985-7.866h2.073l2.931 7.776 2.777-7.776h3.412l-5.036 13.826h-2.194l-2.941-7.878-3.03 7.878h-2.168L5.853 5.567zM41.98 13.484H30.855c.16.983.59 1.764 1.286 2.344.698.58 1.588.87 2.67.87 1.294 0 2.406-.452 3.335-1.36l2.918 1.373c-.727 1.034-1.598 1.797-2.613 2.293-1.015.496-2.22.744-3.614.744-2.164 0-3.927-.683-5.288-2.052-1.36-1.369-2.041-3.081-2.041-5.14 0-2.11.678-3.86 2.034-5.256 1.358-1.393 3.058-2.09 5.105-2.09 2.173 0 3.94.697 5.302 2.09 1.36 1.394 2.041 3.234 2.041 5.521l-.012.663zm-3.464-2.731a3.478 3.478 0 0 0-1.352-1.88c-.674-.483-1.455-.724-2.345-.724-.966 0-1.813.27-2.54.814-.457.338-.881.936-1.27 1.792h7.507v-.002z" fill="#fff"/><path d="M55.899 10.762h3.463v13.825h-3.463V10.762zM49.672 5.425h3.463v19.162h-3.463V5.425z" fill="#232524"/><path d="M57.63 5.07c.606 0 1.128.22 1.562.66.435.441.651.975.651 1.602 0 .617-.214 1.145-.644 1.582-.43.437-.944.654-1.543.654a2.114 2.114 0 0 1-1.574-.668 2.232 2.232 0 0 1-.65-1.62c0-.611.214-1.131.643-1.563a2.11 2.11 0 0 1 1.555-.648z" fill="#34D186"/><path d="M65.97 10.762v1.417c.784-.663 1.496-1.124 2.133-1.384a5.164 5.164 0 0 1 1.956-.389c1.368 0 2.528.479 3.482 1.436.802.814 1.204 2.016 1.204 3.61v9.135H71.32v-6.055c0-1.65-.075-2.744-.222-3.287-.147-.543-.405-.955-.772-1.237-.367-.283-.82-.425-1.36-.425-.699 0-1.3.234-1.802.704s-.85 1.119-1.044 1.948c-.1.432-.152 1.367-.152 2.806v5.546h-3.463V10.762h3.464zM91.738 10.762v11.842c0 2.339-.47 4.058-1.408 5.16C89.07 29.254 87.172 30 84.635 30c-1.352 0-2.49-.17-3.41-.508-.922-.339-1.7-.837-2.335-1.494-.634-.658-1.103-1.456-1.408-2.396H81.3c.338.39.774.684 1.306.883.532.2 1.162.299 1.89.299.929 0 1.677-.144 2.243-.432.566-.288.966-.662 1.198-1.12.232-.457.348-1.245.348-2.363-.61.611-1.246 1.048-1.915 1.316-.668.267-1.425.4-2.27.4-1.85 0-3.416-.67-4.692-2.007-1.276-1.337-1.915-3.032-1.915-5.083 0-2.195.677-3.956 2.03-5.287 1.225-1.202 2.688-1.804 4.387-1.804a5.81 5.81 0 0 1 2.25.44c.707.29 1.416.773 2.125 1.44v-1.522h3.453zM84.7 13.647c-1.09 0-1.99.366-2.7 1.1-.71.732-1.066 1.653-1.066 2.763 0 1.152.364 2.096 1.091 2.833.727.738 1.64 1.106 2.74 1.106 1.073 0 1.96-.361 2.656-1.081.697-.72 1.046-1.664 1.046-2.833 0-1.152-.352-2.09-1.053-2.81-.702-.72-1.605-1.078-2.714-1.078zM95.227 10.762h3.5v6.658c0 1.296.088 2.197.266 2.7.178.505.464.895.859 1.174.395.28.88.42 1.456.42.577 0 1.065-.137 1.469-.413.403-.276.701-.68.896-1.212.144-.398.217-1.25.217-2.554v-6.773h3.463v5.857c0 2.415-.19 4.066-.571 4.955-.466 1.084-1.15 1.917-2.056 2.496-.905.58-2.055.871-3.449.871-1.513 0-2.737-.338-3.67-1.017-.936-.678-1.592-1.622-1.973-2.833-.27-.838-.405-2.363-.405-4.575v-5.754h-.002zM124.473 10.762v13.825h-3.463v-1.46c-.676.643-1.355 1.106-2.033 1.39a5.704 5.704 0 0 1-2.211.426c-1.782 0-3.323-.693-4.624-2.077-1.3-1.384-1.951-3.107-1.951-5.165 0-2.134.629-3.884 1.887-5.248 1.259-1.364 2.786-2.045 4.585-2.045.828 0 1.606.156 2.331.47.726.314 1.397.784 2.014 1.41v-1.526h3.465zm-7.103 2.847c-1.07 0-1.958.38-2.667 1.138-.708.758-1.061 1.73-1.061 2.916 0 1.194.36 2.177 1.08 2.948.721.77 1.607 1.157 2.662 1.157 1.087 0 1.989-.378 2.704-1.137.715-.758 1.076-1.752 1.076-2.98 0-1.202-.359-2.177-1.076-2.923-.718-.748-1.624-1.12-2.718-1.12z" fill="#232524"/></svg>
